X:1453
T:Nora O'Neill
M:C|
L:1/8
N:"collected by Mahony"
B:O'Neill's 1453
Z:"Transcribed by Bob Safranek, rjs@gsp.org"
K:C
g2 agf gece|gage  fdde|g2 agf gece|fagf  ec  c2|
g2 agf gece|gage  fddf|efge      agfe|fagf  ec  c2||
GcEc      Gcec|Gceg fd d2|GcEc      Gcec|Bagf ec c2|
GcEc      Gcec|Gceg fd d2|agfe      fedc|Bagf ec c2|]
